X: 37633
T: Snow Leopard
R: reel
M: 4/4
K: Emajor
B2E c2E ~B2-|Bcef {g}fecA|B{c}BE c{d}cE ~B2|BAGA BcBA|
B{c}BE c{d}cE ~B2-|Bcef {g}fece|be ~e2 ~f3c|ecB=G FE ~E2:|
c3B cef=g|~f3f {g}fecB|c3B cef=g|bf{g}fe =gf~f2|
c3B cef=g|~f3f {g}fece|be~e2 fe=gf|ecB=G FE ~E2|
c3B cef=g|~f3e fec2-|c2cB cef=g|bf{g}fe =gf~f2|
c3B cef=g|~f3e {g}fece|be~e2 fe=gf|ecB=G FE ~E2||

